svgs/sharp-solid/browsers.svg

<svg xmlns="http://www.w3.org/2000/svg" viewBox="0 0 576 512"><!--! Font Awesome Pro 6.6.0 by @fontawesome - https://fontawesome.com License - https://fontawesome.com/license (Commercial License) Copyright 2024 Fonticons, Inc. --><path d="M576 0L96 0l0 416 480 0L576 0zM512 72l0 48-256 0 0-48 256 0zM160 64l64 0 0 64-64 0 0-64zM48 120l0-24L0 96l0 24L0 488l0 24 24 0 432 0 24 0 0-48-24 0L48 464l0-344z"/></svg>

<svg xmlns="http://www.w3.org/2000/svg" viewBox="0 0 576 512"><!--! Font Awesome Pro 6.4.0 by @fontawesome - https://fontawesome.com License - https://fontawesome.com/license (Commercial License) Copyright 2023 Fonticons, Inc. --><path d="M576 0H96V416H576V0zM512 72v48H256V72H512zM160 64h64v64H160V64zM48 120V96H0v24V488v24H24 456h24V464H456 48V120z"/></svg>
